X:45
T:Lord Gordon's
S:1st time through Kevin Burke's performance on {\it Up Close}
N:Cf. O'Neills (Krassen), Ceol Rince vol. 1, The Fiddler's Fakebook, and The Irish Fiddle Book (Cranitch). Transcribed by Alan Ng
D:Kevin Burke, Up Close (Green Linnet 1052)
Z: id:ng-reels-9 transcribed by Alan Ng agng@students.wisc.edu April 29, 1996
E:11
M:C|
K:D
dB|ADFD A,DFB|ADFD FAdc|BE ~E2 cE ~E2|BE ~E2 BAFA|\
dcdf ecdB|AFDF A2 Bc|dBcA BGAF|EFGA Bc::\
de|f2 df afdf|af df a2 gf|efga bgec|dcBA FABc|\
df ~f2 eB ~B2|AFDF A2 Bc|dBcA BGAF|EFGA Bc::\
de|fa ~a2 fdad|fa ~a2 fdad|gb ~b2 gebe|gb ~b2 gebe|\
fgfe ~d3 c|BA^GB ABdf|afec dBAF|EFGA Bc::\
dB|A ~d3 defd|A ~d3 defd|egfg ~g3 f|egfg gage|\
fgfe dcdB|BA^GB ABdf|afec dBAF|EFGA Bc::\
de|fa ~a2 afde|faaf ~a2 gf|gbef gbef|gbeg bgef|\
g2 ag fgaf|gedB ABdf|afec dBAF|EFGA Bc:|**
\bigskip
